Suru++-Ubuntu/apps/symbolic/uget-icon-symbolic.svg

<svg width="16" height="16" version="1.1" xmlns="http://www.w3.org/2000/svg">
 <path d="m15.499999 6.5000005h-3.749999v2.2499977h2.249999l-4.124998 4.8750028-3.7500031-4.8750028h1.875001v-5.2499967h3.7500011v1.4999995h3.749999v-1.4999995s0-3.0000013-2.812501-3.0000013h-5.6250001s-2.8124979 0-2.8124979 3.1875022v5.8124968h-1.5v-5.2499991h-2.25v5.6250009c0 1.874999 1.874998 1.874999 1.874998 1.874999h1.875002v0.937499c0 2.812501 2.8124979 2.812501 2.8124979 2.812501h5.6250001c2.812501 0 2.812501-2.812501 2.812501-2.812501" style="fill:#808080"/>
</svg>

<svg xmlns="http://www.w3.org/2000/svg" width="16" height="16" version="1.1">
 <path style="fill:#808080" d="M 15.499999,6.5000005 H 11.75 v 2.2499977 h 2.249999 L 9.875001,13.625001 6.1249979,8.7499982 h 1.875001 V 3.5000015 H 11.75 V 5.000001 h 3.749999 V 3.5000015 c 0,0 0,-3.0000013 -2.812501,-3.0000013 H 7.0624979 c 0,0 -2.8124979,0 -2.8124979,3.1875022 V 4.2500001 9.4999992 H 2.75 V 4.2500001 H 0.5 V 9.875001 C 0.5,11.75 2.374998,11.75 2.374998,11.75 H 4.25 v 0.937499 C 4.25,15.5 7.0624979,15.5 7.0624979,15.5 h 5.6250001 c 2.812501,0 2.812501,-2.812501 2.812501,-2.812501"/>
</svg>
